res/icons/hicolor/scalable/apps/page.codeberg.sungsphinx.Examine.svg

<?xml version="1.0" encoding="UTF-8"?>
<svg version="1.1" viewBox="0 0 128 128" xmlns="http://www.w3.org/2000/svg">
 <g transform="matrix(1.3783 0 0 1.3783 -24.967 -23.609)" stroke-width=".37406">
  <rect x="42.951" y="72.884" width="44.888" height="26.933" ry="2.9925" fill="#424242"/>
  <rect x="43.325" y="77.56" width="44.14" height="20.387" ry="2.9925" fill="#848484"/>
  <rect x="23.5" y="25" width="83.79" height="59.85" ry="4.4888" fill="#6f6f6f"/>
  <rect x="23.874" y="25.378" width="83.042" height="57.606" ry="4.3017" fill="#acacac"/>
  <rect x="26.118" y="27.622" width="78.554" height="49.377" ry=".74813" fill="#424242"/>
  <rect x="56.418" y="78.121" width="17.955" height="2.9925" ry=".74813" fill="#424242"/>
 </g>
 <g transform="matrix(1.0824 0 0 1.0824 25.313 7.6427)">
  <path transform="matrix(.71758 .69648 -.71758 .69648 0 0)" d="m81.482-1.9592h42.276c2.3855 0 4.3059 1.522 4.3059 3.4126v1.8018c0 1.8906-1.9204 3.4126-4.3059 3.4126h-42.276c-2.3855 0-4.3059-1.522-4.3059-3.4126v-1.8018c0-1.8906 1.9204-3.4126 4.3059-3.4126z" fill="#6f6f6f" stroke-width=".61447"/>
  <path transform="matrix(1.2734,0,0,1.2734,-46.454,-28.873)" d="m65.495 38.49c-3.6134 0-7.0787 1.4483-9.6338 4.0263-2.555 2.578-3.9904 6.0745-3.9904 9.7204s1.4354 7.1424 3.9904 9.7203c2.555 2.5781 6.0204 4.0264 9.6338 4.0264s7.0787-1.4483 9.6337-4.0264c2.5551-2.5779 3.9905-6.0744 3.9905-9.7203s-1.4354-7.1424-3.9905-9.7204c-2.5549-2.578-6.0203-4.0263-9.6337-4.0263zm0 5.4005c0.64524 0 1.2641 0.25863 1.7203 0.71899 0.45625 0.46036 0.71258 1.0847 0.71258 1.7358 0 0.65104-0.25633 1.2754-0.71258 1.7358-0.45626 0.46036-1.0751 0.71899-1.7203 0.71899s-1.2641-0.25863-1.7203-0.71899c-0.45625-0.46036-0.71258-1.0847-0.71258-1.7358 0-0.65104 0.25633-1.2754 0.71258-1.7358 0.45626-0.46036 1.0751-0.71899 1.7203-0.71899zm-1.9463 6.3824h3.8926v9.8191h-3.8926z" fill="#fff" stroke-width="1.955"/>
  <path d="m58.901 37.638a22.026 22.026 0 0 1-22.026 22.026 22.026 22.026 0 0 1-22.026-22.026 22.026 22.026 0 0 1 22.026-22.026 22.026 22.026 0 0 1 22.026 22.026z" fill="#808080" opacity=".50032" stroke-width="1.1093"/>
  <path d="M 37,7.4185 A 29.971,30.311 0 0 0 7.029,37.7295 29.971,30.311 0 0 0 37,68.0405 29.971,30.311 0 0 0 66.971,37.7295 29.971,30.311 0 0 0 37,7.4185 Z m 0,7.5042 A 22.551,22.807 0 0 1 59.551,37.7297 22.551,22.807 0 0 1 37,60.5367 22.551,22.807 0 0 1 14.449,37.7297 22.551,22.807 0 0 1 37,14.9227 Z" fill="#6f6f6f" stroke-width="1.184"/>
  <path d="M 37,8.6669 A 28.737,29.063 0 0 0 8.263,37.7299 28.737,29.063 0 0 0 37,66.7929 28.737,29.063 0 0 0 65.737,37.7299 28.737,29.063 0 0 0 37,8.6669 Z m 0,7.1953 A 21.622,21.868 0 0 1 58.622,37.7302 21.622,21.868 0 0 1 37,59.5982 21.622,21.868 0 0 1 15.378,37.7302 21.622,21.868 0 0 1 37,15.8622 Z" fill="#acacac" stroke-width="1.1353"/>
 </g>
</svg>

<?xml version="1.0" encoding="UTF-8"?>
<svg version="1.1" viewBox="0 0 128 128" xmlns="http://www.w3.org/2000/svg">
 <g stroke-width=".37406">
  <rect x="42.951" y="72.884" width="44.888" height="26.933" ry="2.9925" fill="#424242"/>
  <rect x="43.325" y="77.56" width="44.14" height="20.387" ry="2.9925" fill="#848484"/>
  <rect x="23.5" y="25" width="83.79" height="59.85" ry="4.4888" fill="#6f6f6f"/>
  <rect x="23.874" y="25.378" width="83.042" height="57.606" ry="4.3017" fill="#acacac"/>
  <rect x="26.118" y="27.622" width="78.554" height="49.377" ry=".74813" fill="#424242"/>
  <rect x="56.418" y="78.121" width="17.955" height="2.9925" ry=".74813" fill="#424242"/>
 </g>
 <g transform="matrix(.78529 0 0 .78529 36.48 22.674)">
  <path transform="matrix(.71758 .69648 -.71758 .69648 0 0)" d="m81.482-1.9592h42.276c2.3855 0 4.3059 1.522 4.3059 3.4126v1.8018c0 1.8906-1.9204 3.4126-4.3059 3.4126h-42.276c-2.3855 0-4.3059-1.522-4.3059-3.4126v-1.8018c0-1.8906 1.9204-3.4126 4.3059-3.4126z" fill="#6f6f6f" stroke-width=".61447"/>
  <path transform="matrix(1.2734 0 0 1.2734 -46.454 -28.873)" d="m65.495 38.49c-3.6134 0-7.0787 1.4483-9.6338 4.0263-2.555 2.578-3.9904 6.0745-3.9904 9.7204s1.4354 7.1424 3.9904 9.7203c2.555 2.5781 6.0204 4.0264 9.6338 4.0264s7.0787-1.4483 9.6337-4.0264c2.5551-2.5779 3.9905-6.0744 3.9905-9.7203s-1.4354-7.1424-3.9905-9.7204c-2.5549-2.578-6.0203-4.0263-9.6337-4.0263zm0 5.4005c0.64524 0 1.2641 0.25863 1.7203 0.71899 0.45625 0.46036 0.71258 1.0847 0.71258 1.7358 0 0.65104-0.25633 1.2754-0.71258 1.7358-0.45626 0.46036-1.0751 0.71899-1.7203 0.71899s-1.2641-0.25863-1.7203-0.71899c-0.45625-0.46036-0.71258-1.0847-0.71258-1.7358 0-0.65104 0.25633-1.2754 0.71258-1.7358 0.45626-0.46036 1.0751-0.71899 1.7203-0.71899zm-1.9463 6.3824h3.8926v9.8191h-3.8926z" fill="#fff" stroke-width="1.955"/>
  <path d="m58.901 37.638a22.026 22.026 0 0 1-22.026 22.026 22.026 22.026 0 0 1-22.026-22.026 22.026 22.026 0 0 1 22.026-22.026 22.026 22.026 0 0 1 22.026 22.026z" fill="#808080" opacity=".50032" stroke-width="1.1093"/>
  <path d="m37 7.4185a29.971 30.311 0 0 0-29.971 30.311 29.971 30.311 0 0 0 29.971 30.311 29.971 30.311 0 0 0 29.971-30.311 29.971 30.311 0 0 0-29.971-30.311zm0 7.5042a22.551 22.807 0 0 1 22.551 22.807 22.551 22.807 0 0 1-22.551 22.807 22.551 22.807 0 0 1-22.551-22.807 22.551 22.807 0 0 1 22.551-22.807z" fill="#6f6f6f" stroke-width="1.184"/>
  <path d="m37 8.6669a28.737 29.063 0 0 0-28.737 29.063 28.737 29.063 0 0 0 28.737 29.063 28.737 29.063 0 0 0 28.737-29.063 28.737 29.063 0 0 0-28.737-29.063zm0 7.1953a21.622 21.868 0 0 1 21.622 21.868 21.622 21.868 0 0 1-21.622 21.868 21.622 21.868 0 0 1-21.622-21.868 21.622 21.868 0 0 1 21.622-21.868z" fill="#acacac" stroke-width="1.1353"/>
 </g>
</svg>
